X:46
T:Polska efter Bengt Bixo
T:(SvL Jämtland 46)
S:Bengt Bixo
B:Svenska Låtar Jämtland
R:Polska
O:Mörsil, Jämtland
M:3/4
L:1/8
K:G
v(c/d/c/B/) c(e d)c|BA GB dg|f(a/f/) g2 (de)|dc BA (3G(AB)|
(c/d/c/B/) c(e d)c|BA GB dg|fa/f/ (3g(fe) (3d(ef)|(3g(fg) (3d(af) d2:|
|:vg2 (ab) ba|(g{ag})f gb ba|(3a(ga) bg dg|fg ((3agf) g2|
d2 gb (ba)|(g{ag})f gb ba|(3a(ga) bg dg|fg (3(aba) g2:|

